papirus/32x32/apps/tomato.svg

<svg height="32" width="32" xmlns="http://www.w3.org/2000/svg" xmlns:xlink="http://www.w3.org/1999/xlink"><clipPath id="a"><circle cx="286" cy="26" r="10"/></clipPath><circle cx="16" cy="16.950001" fill="#e74c3c" r="14"/><path d="m13.25585 2.0009062c-.09394.00385-.189542.019853-.284177.049257-.504721.1568307-.78473.6321685-.627808 1.0656891l.393809 1.0880658c-5.7078134.5336274-8.737674 6.3734989-8.737674 6.3734989 0 0 1.9098968.348298 6.516436-2.1190268 1.279924-.685544 2.017773-1.422446 2.438927-2.0892384-.08704.6878057-.07428 1.5696097.128913 2.6943004.510314 2.8246518 2.64249 4.9365478 2.64249 4.9365478 0 0 2.580679-4.1554705-.186629-8.2284996 4.081536 2.6885451 10.459863 1.5200671 10.459863 1.5200671 0 0-2.857305-2.6286212-5.890827-3.2838154-2.263646-.4889116-4.347523-.1695379-5.430998.078611-.000637-.080285-.01444-.1615092-.04331-.2412112l-.468935-1.2955649c-.127496-.3522357-.503036-.5652763-.910105-.5486832z" fill-rule="evenodd" opacity=".2"/><circle clip-path="url(#a)" cx="286" cy="26" opacity="0" r="10" stroke-width=".45455" transform="matrix(1.4 0 0 1.4 -384.4 -18.4)"/><circle clip-path="url(#a)" cx="286" cy="26" opacity="0" r="10" stroke-width=".90908998" transform="matrix(1.4 0 0 1.4 -384.4 -18.4)"/><path d="m13.25585 1.0009062c-.09394.00385-.189542.019853-.284177.049257-.504721.1568307-.78473.6321685-.627808 1.0656891l.393809 1.0880658c-5.7078134.5336274-8.737674 6.3734991-8.737674 6.3734991 0 0 1.9098968.348298 6.516436-2.119027 1.279924-.685544 2.017773-1.422446 2.438927-2.0892384-.08704.6878057-.07428 1.5696097.128913 2.6943004.510314 2.8246518 2.64249 4.9365478 2.64249 4.9365478 0 0 2.580679-4.1554705-.186629-8.2284996 4.081536 2.6885451 10.459863 1.5200671 10.459863 1.5200671 0 0-2.857305-2.6286212-5.890827-3.2838154-2.263646-.4889116-4.347523-.1695379-5.430998.078611-.000637-.080285-.01444-.1615092-.04331-.2412112l-.468935-1.2955649c-.127496-.3522357-.503036-.56527629-.910105-.5486832z" fill="#a6ef4d" fill-rule="evenodd"/><path d="m29.980469 16.392578a14 14 0 0 1 -13.980469 13.607422 14 14 0 0 1 -13.9804688-13.443359 14 14 0 0 0 -.0195312.392578 14 14 0 0 0  14 14 14 14 0 0 0  14-14 14 14 0 0 0 -.01953-.556641z" opacity=".3"/><path d="m13.255859 1c-.09394.00385-.190521.021377-.285156.050781-.504721.1568307-.783875.6309326-.626953 1.0644532l.113281.3105468c.116817-.1660099.287263-.3046485.513672-.375.094635-.0294037.191216-.046931.285156-.050781.407069-.016593.782661.1965924.910157.5488281l.46875 1.296875c.02887.079702.04233.1599494.04297.2402344 1.083475-.2481489 3.167995-.5670366 5.431641-.078125 1.935027.4179361 3.710891 1.5963573 4.806641 2.4257813.673665-.0680931 1.083982-.1425782 1.083982-.1425782 0 0-2.857103-2.6280089-5.890625-3.2832031-2.263646-.4889116-4.348166-.1700239-5.431641.078125-.000637-.080285-.0141-.1605324-.04297-.2402344l-.46875-1.296875c-.127494-.3522357-.503086-.56542119-.910155-.5488281zm-.861328 2.2558594c-5.481219.7328003-8.394531 6.3222656-8.394531 6.3222656 0 0 .2165689.026413.6230469-.00391 1.1504569-1.6912065 3.895889-4.9766205 8.1152341-5.37109zm3.146485 2.515625c.837152 1.2321526 1.180002 2.4696931 1.257812 3.5996094.060952-.9606734-.047534-2.0380492-.492187-3.1523438-.262481-.1357955-.518104-.2842209-.765625-.4472656zm-2.585938.5976562c-.01247.019738-.03189.040689-.04492.060547.0025.099971.0093.204834.01563.3105469.0086-.1265803.01469-.255671.0293-.3710938z" fill="#fff" fill-rule="evenodd" opacity=".1"/></svg>

<?xml version="1.0" encoding="UTF-8" standalone="no"?>
<!-- Created with Inkscape (http://www.inkscape.org/) -->

<svg
   xmlns:dc="http://purl.org/dc/elements/1.1/"
   xmlns:cc="http://creativecommons.org/ns#"
   xmlns:rdf="http://www.w3.org/1999/02/22-rdf-syntax-ns#"
   xmlns:svg="http://www.w3.org/2000/svg"
   xmlns="http://www.w3.org/2000/svg"
   xmlns:sodipodi="http://sodipodi.sourceforge.net/DTD/sodipodi-0.dtd"
   xmlns:inkscape="http://www.inkscape.org/namespaces/inkscape"
   id="svg2817"
   height="32"
   width="32"
   version="1.0"
   inkscape:version="0.91 r"
   sodipodi:docname="tomato.svg">
  <sodipodi:namedview
     pagecolor="#ffffff"
     bordercolor="#666666"
     borderopacity="1"
     objecttolerance="10"
     gridtolerance="10"
     guidetolerance="10"
     inkscape:pageopacity="0"
     inkscape:pageshadow="2"
     inkscape:window-width="1535"
     inkscape:window-height="876"
     id="namedview31"
     showgrid="false"
     inkscape:zoom="1"
     inkscape:cx="24"
     inkscape:cy="24"
     inkscape:window-x="65"
     inkscape:window-y="24"
     inkscape:window-maximized="1"
     inkscape:current-layer="svg2817" />
  <metadata
     id="metadata57">
    <rdf:RDF>
      <cc:Work
         rdf:about="">
        <dc:format>image/svg+xml</dc:format>
        <dc:type
           rdf:resource="http://purl.org/dc/dcmitype/StillImage" />
        <dc:title></dc:title>
      </cc:Work>
    </rdf:RDF>
  </metadata>
  <defs
     id="defs2819">
    <clipPath
       id="clipPath4186"
       clipPathUnits="userSpaceOnUse">
      <circle
         id="path4188"
         style="color:#000000;fill:url(#linearGradient4190)"
         cx="286"
         cy="26"
         r="10" />
    </clipPath>
  </defs>
  <circle
     id="path4230"
     style="color:#000000;fill:#e74c3c"
     cx="16"
     cy="16.950001"
     r="14" />
  <path
     id="path4274"
     d="m 13.25585,2.0009062 c -0.09394,0.00385 -0.189542,0.019853 -0.284177,0.049257 -0.504721,0.1568307 -0.78473,0.6321685 -0.627808,1.0656891 l 0.393809,1.0880658 C 7.0298606,4.7375455 4,10.577417 4,10.577417 c 0,0 1.9098968,0.348298 6.516436,-2.1190268 1.279924,-0.685544 2.017773,-1.422446 2.438927,-2.0892384 -0.08704,0.6878057 -0.07428,1.5696097 0.128913,2.6943004 C 13.59459,11.888104 15.726766,14 15.726766,14 c 0,0 2.580679,-4.1554705 -0.186629,-8.2284996 C 19.621673,8.4600455 26,7.2915675 26,7.2915675 c 0,0 -2.857305,-2.6286212 -5.890827,-3.2838154 -2.263646,-0.4889116 -4.347523,-0.1695379 -5.430998,0.078611 -6.37e-4,-0.080285 -0.01444,-0.1615092 -0.04331,-0.2412112 L 14.16593,2.549587 C 14.038434,2.1973513 13.662894,1.9843107 13.255825,2.0009038 Z"
     style="display:inline;opacity:0.2;fill:#000000;fill-opacity:1;fill-rule:evenodd;stroke:none;stroke-width:2;stroke-linecap:butt;stroke-linejoin:miter;stroke-miterlimit:4;stroke-dasharray:none;stroke-opacity:0.89019608"
     inkscape:connector-curvature="0" />
  <circle
     id="path4240"
     style="color:#000000;opacity:0;stroke-width:0.45455"
     clip-path="url(#clipPath4186)"
     cx="286"
     transform="matrix(1.4,0,0,1.4,-384.4,-18.4)"
     cy="26"
     r="10" />
  <circle
     id="path4242"
     style="color:#000000;opacity:0;stroke-width:0.90908998"
     clip-path="url(#clipPath4186)"
     cx="286"
     transform="matrix(1.4,0,0,1.4,-384.4,-18.4)"
     cy="26"
     r="10" />
  <path
     inkscape:connector-curvature="0"
     style="display:inline;fill:#a6ef4d;fill-opacity:1;fill-rule:evenodd;stroke:none;stroke-width:2;stroke-linecap:butt;stroke-linejoin:miter;stroke-miterlimit:4;stroke-dasharray:none;stroke-opacity:0.89019608"
     d="m 13.25585,1.0009062 c -0.09394,0.00385 -0.189542,0.019853 -0.284177,0.049257 -0.504721,0.1568307 -0.78473,0.6321685 -0.627808,1.0656891 l 0.393809,1.0880658 C 7.0298606,3.7375455 4,9.5774172 4,9.5774172 c 0,0 1.9098968,0.348298 6.516436,-2.119027 1.279924,-0.685544 2.017773,-1.422446 2.438927,-2.0892384 -0.08704,0.6878057 -0.07428,1.5696097 0.128913,2.6943004 C 13.59459,10.888104 15.726766,13 15.726766,13 c 0,0 2.580679,-4.1554705 -0.186629,-8.2284996 C 19.621673,7.4600455 26,6.2915675 26,6.2915675 c 0,0 -2.857305,-2.6286212 -5.890827,-3.2838154 -2.263646,-0.4889116 -4.347523,-0.1695379 -5.430998,0.078611 -6.37e-4,-0.080285 -0.01444,-0.1615092 -0.04331,-0.2412112 L 14.16593,1.549587 C 14.038434,1.1973513 13.662894,0.98431071 13.255825,1.0009038 Z"
     id="path4216-3" />
  <path
     inkscape:connector-curvature="0"
     style="color:#000000;opacity:0.3;fill:#000000;fill-opacity:1"
     d="M 29.980469,16.392578 A 14,14 0 0 1 16,30 14,14 0 0 1 2.0195312,16.556641 14,14 0 0 0 2,16.949219 a 14,14 0 0 0 14,14 14,14 0 0 0 14,-14 14,14 0 0 0 -0.01953,-0.556641 z"
     id="circle4264" />
  <path
     inkscape:connector-curvature="0"
     style="display:inline;opacity:0.1;fill:#ffffff;fill-opacity:1;fill-rule:evenodd;stroke:none;stroke-width:2;stroke-linecap:butt;stroke-linejoin:miter;stroke-miterlimit:4;stroke-dasharray:none;stroke-opacity:0.89019608"
     d="m 13.255859,1 c -0.09394,0.00385 -0.190521,0.021377 -0.285156,0.050781 -0.504721,0.1568307 -0.783875,0.6309326 -0.626953,1.0644532 l 0.113281,0.3105468 c 0.116817,-0.1660099 0.287263,-0.3046485 0.513672,-0.375 C 13.065338,2.0213773 13.161919,2.00385 13.255859,2 13.662928,1.983407 14.03852,2.1965924 14.166016,2.5488281 l 0.46875,1.296875 c 0.02887,0.079702 0.04233,0.1599494 0.04297,0.2402344 1.083475,-0.2481489 3.167995,-0.5670366 5.431641,-0.078125 1.935027,0.4179361 3.710891,1.5963573 4.806641,2.4257813 C 25.589683,6.3655007 26,6.2910156 26,6.2910156 c 0,0 -2.857103,-2.6280089 -5.890625,-3.2832031 -2.263646,-0.4889116 -4.348166,-0.1700239 -5.431641,0.078125 -6.37e-4,-0.080285 -0.0141,-0.1605324 -0.04297,-0.2402344 l -0.46875,-1.296875 C 14.03852,1.1965924 13.662928,0.98340691 13.255859,1 Z M 12.394531,3.2558594 C 6.913312,3.9886597 4,9.578125 4,9.578125 c 0,0 0.2165689,0.026413 0.6230469,-0.00391 1.1504569,-1.6912065 3.895889,-4.9766205 8.1152341,-5.37109 l -0.34375,-0.9472656 z m 3.146485,2.515625 C 16.378168,7.003637 16.721018,8.2411775 16.798828,9.3710938 16.85978,8.4104204 16.751294,7.3330446 16.306641,6.21875 16.04416,6.0829545 15.788537,5.9345291 15.541016,5.7714844 Z m -2.585938,0.5976562 c -0.01247,0.019738 -0.03189,0.040689 -0.04492,0.060547 0.0025,0.099971 0.0093,0.204834 0.01563,0.3105469 0.0086,-0.1265803 0.01469,-0.255671 0.0293,-0.3710938 z"
     id="path4269" />
</svg>
